X:5846
T:Gan Ainm
R:Reel
S:
H:
N:
D:
Z:Adrian Scahill
M:4/4
L:1/8
K:G
A2dA eAdB|AcBG AGEG|1 A2dA eAdg|gedB GBdB:|2 c3A B3c|dBAG EFGB|\
(3Bcd ef gedB|GBAF GED2|1 (3Bcd ef g3b|a3f gfed:|2 c3A B3c|dBAG EFG2||
